X:111
%%etbk:tnset id:39,pos:2,rep:3x,ant:
%%etbk:wsite http://www.thesession.org/tunes/display/4620
%%etbk:pldat 2016-07-21T18:42,2015-01-26T19:17,2015-01-20T17:17,2014-12-31T15:56,2014-12-03T18:13,2014-05-07T15:46,2014-05-05T19:32,2014-05-02T17:39,2014-04-02T17:19,2014-02-26T18:49,2014-02-14T16:36,2014-02-10T18:46,2014-02-09T13:23,2014-02-08T13:54,2013-11-26T16:53,2013-08-28T16:27,2013-05-22T17:02,2013-05-12T19:06,2013-05-05T13:48
T: John Blessings
Z: Piano Box Version by Martin Fleischmann
H: Created 2013-02-19 /  Last Modified 2013-02-19
M: 4/4
L: 1/8
R: reel
K: Dmaj
|: "D"!4!A!2!F!1!D!2!F !1!E!2!F!1!D!2!F | !4!A!2!F!1!A!2!B "A"!5!e2dB | "D"!1!A!2!F!1!DF !1!EF!1!DF |1 !4!A!2!F!1!AB !4!d2dB:|2 !4!A!2!F!1!A!2!B !4!!1!d4| 
"D"!1!d2!3!fd !2!ef!1!d!2!B | !1!A!2!F!1!AB "A"!5!e2d!2!B | "D"!1!d2!3!fd !2!ef!1!d!2!B | !1!A!2!F!1!AB !4!!1!d4 |
"D"!1!defd !2!ef!1!d!2!B | !1!A!2!F!1!AB "A"!5!e2dB | "D"!1!d!2!fff !4!af!5!bf | "A"!4!a!3!fef "D"!1!d3!2!B ||


